!!!OTL: Als ich dich zum ersten Mal erblickte (2-13), S. 28
!!!id: K1106
**kern
*clefG2
*k[f#c#]
*D:
{8.f#
16e
=1
4.d
8d
8d
8f#
8.b
16a
=2
8a
8g
2e}
=3
{8.g
16f#
=4
4.e
8dd
8cc#
8b
8a
8g
=5
2f#}
4r
=6
{8.dd
16cc#
=7
4.b
8cc#
8ee
8dd
8cc#
8b
=8
8a
8f#
4a}
8r
=9
{16a
16a
8b
8a
=10
4.cc#
8b
8a
8a
8g
8e
=11
2d}
4r
=12
{8.dd
16cc#
=13
4.b
8cc#
8ee
8dd
8cc#
8b
=14
8a
8f#
4a}
8r
=15
{16a
16a
8b
8a
=16
4.cc#
8b
8a
8a
8g
8e
=17
2d}
4r
==
*-
!!!minrhy: 16
!!!meters: 4/4 ]  ZZ[6
!!!cut: Als ich dich zum ersten Mal erblickte (2-13), S. 28
!!!reg: Luxemburg
!!!trd: KINTZELE, Guillaume: An der Ucht, Bd. 2, Luxemburg 1927
!!!rhy1: X_.X  X__.X_X_X_X_.X  X_X_X___
!!!rhy2: X_.X  X__.X_X_X_X_X_  X___0__
!!!key: K1106  16  D 4/4 ]  ZZ[6
!!!mod: HEPTATONIK IONISCH]  AMBITUS[9
!!!kad: 235151
!!!akz: 1152_273_6+25_751_6+25_751_
!!!fot: 'a__b__c__d__c__d__
!!!for: 'a__b__bw_bv_bw_bv_
!!!fok: 'Sd_\__Wd_^d_Wd_^d_
!! PHRAS[AUFTAKTIG]
!!!fkt: Werbung um Treue
!!!bem: in der Quelle mit einer 2. Stimme versehen
!! KINTZELE
!! PR[0] 2K[13] 2G[13] 3K[3] 3G[6] 4A[3] 4Ü[0] 5A[3] 6K[0] 6G[0]
!! 7K[0] 7G[0] 8A[0] MEHR[0] SI[42] ABS[31] SR[26] SP[16]
!! ST[8] 2k[13] 2g[32] 3k[6] 3g[3] 4d[0] 4ü[0] 5d[0] 6k[3] 6g[0]
!! 7k[0] 7g[0] 8d[0] mehr[0] si[58] dm[-16] sr[45] sp[13]
!! 1F[77] 2F[9] 3F[0] 4F[0] LF[0] 2P[14] 3P[0] 4P[0] TRI[0] DF[3] AB[35]
!! TF[0] U3K[0] U3[0] U4[0] U4Ü[0] U5[0] U6K[0] U6[0] U7K[0] U7[0]
!! N1[6] N2K[0] N2[9] N3K[0] N3[9] N4[9] N4Ü[9] N5[31] N6K[0] N6[13]
!!!n7k: 0] N7[9] O1[3] O2K[0] O2[0] O3K[0] O3[0] HÖ[0
